markup/images/icon48.svg

<svg xmlns="http://www.w3.org/2000/svg" width="24" height="24"><path fill-rule="evenodd" fill="#0D1B27" d="M10.115 13.201c0 .693-.552 1.255-1.232 1.255a1.243 1.243 0 0 1-1.232-1.255c0-.693.551-1.255 1.232-1.255.68 0 1.232.562 1.232 1.255zm5.002-1.255c-.681 0-1.232.562-1.232 1.255 0 .693.551 1.255 1.232 1.255.681 0 1.232-.562 1.232-1.255 0-.693-.551-1.255-1.232-1.255zm8.883.555v2.386c0 1.198-.953 2.168-2.129 2.168h-1.545C18.795 21.385 14.886 24 12 24c-2.887 0-6.796-2.615-8.326-6.945H2.129C.953 17.055 0 16.085 0 14.887v-2.386c0-.824.451-1.54 1.116-1.907.022-3.387.991-6.032 2.884-7.861C5.878.92 8.57 0 12 0c3.43 0 6.122.92 7.999 2.733 1.894 1.829 2.862 4.474 2.885 7.861A2.172 2.172 0 0 1 24 12.501zm-4.506.708c0-.558-.028-1.082-.069-1.59-.945-.881-2.661-1.549-4.825-1.797.284.325.53.754.678 1.317-1.326-1.064-3.928-.81-5.897-3.192a6.253 6.253 0 0 1-.295-.376l-.003-.003c-.35-.483-.469-.77-.476-.452-.058 2.736-1.962 4.87-4.077 5.171a21.14 21.14 0 0 0-.024.922c0 1.157.185 2.211.501 3.161 1.188 1.46 3.149 1.872 4.885 1.981.323-.522 1.046-.887 1.888-.887 1.142 0 2.068.669 2.068 1.495 0 .825-.926 1.495-2.068 1.495-.878 0-1.627-.397-1.926-.955-1.214-.072-2.548-.283-3.737-.855 1.672 2.51 4.264 3.838 5.883 3.838 2.543 0 7.494-3.273 7.494-9.273zm2.108-2.876c-.135-5.91-3.447-9.032-9.602-9.032s-9.467 3.122-9.602 9.032h.819c.299-1.992.932-3.63 1.893-4.89C6.642 3.436 8.96 2.418 12 2.418c3.04 0 5.358 1.018 6.89 3.025.961 1.26 1.594 2.898 1.893 4.89h.819z"/></svg>

<svg 
 xmlns="http://www.w3.org/2000/svg"
 xmlns:xlink="http://www.w3.org/1999/xlink"
 width="24px" height="24px">
<path fill-rule="evenodd"  fill="rgb(13, 27, 39)"
 d="M10.115,13.201 C10.115,13.894 9.563,14.456 8.883,14.456 C8.202,14.456 7.651,13.894 7.651,13.201 C7.651,12.508 8.202,11.946 8.883,11.946 C9.563,11.946 10.115,12.508 10.115,13.201 ZM15.117,11.946 C14.436,11.946 13.885,12.508 13.885,13.201 C13.885,13.894 14.436,14.456 15.117,14.456 C15.798,14.456 16.349,13.894 16.349,13.201 C16.349,12.508 15.798,11.946 15.117,11.946 ZM24.000,12.501 L24.000,14.887 C24.000,16.085 23.047,17.055 21.871,17.055 L20.326,17.055 C18.795,21.385 14.886,24.000 12.000,24.000 C9.113,24.000 5.204,21.385 3.674,17.055 L2.129,17.055 C0.953,17.055 -0.000,16.085 -0.000,14.887 L-0.000,12.501 C-0.000,11.677 0.451,10.961 1.116,10.594 C1.138,7.207 2.107,4.562 4.000,2.733 C5.878,0.920 8.570,-0.000 12.000,-0.000 C15.430,-0.000 18.122,0.920 19.999,2.733 C21.893,4.562 22.861,7.207 22.884,10.594 C23.549,10.961 24.000,11.677 24.000,12.501 ZM19.494,13.209 C19.494,12.651 19.466,12.127 19.425,11.619 C18.480,10.738 16.764,10.070 14.600,9.822 C14.884,10.147 15.130,10.576 15.278,11.139 C13.952,10.075 11.350,10.329 9.381,7.947 C9.268,7.814 9.171,7.688 9.086,7.571 C9.085,7.570 9.084,7.569 9.083,7.568 L9.083,7.568 C8.733,7.085 8.614,6.798 8.607,7.116 C8.549,9.852 6.645,11.986 4.530,12.287 C4.517,12.588 4.506,12.892 4.506,13.209 C4.506,14.366 4.691,15.420 5.007,16.370 C6.195,17.830 8.156,18.242 9.892,18.351 C10.215,17.829 10.938,17.464 11.780,17.464 C12.922,17.464 13.848,18.133 13.848,18.959 C13.848,19.784 12.922,20.454 11.780,20.454 C10.902,20.454 10.153,20.057 9.854,19.499 C8.640,19.427 7.306,19.216 6.117,18.644 C7.789,21.154 10.381,22.482 12.000,22.482 C14.543,22.482 19.494,19.209 19.494,13.209 ZM21.602,10.333 C21.467,4.423 18.155,1.301 12.000,1.301 C5.845,1.301 2.533,4.423 2.398,10.333 L3.217,10.333 C3.516,8.341 4.149,6.703 5.110,5.443 C6.642,3.436 8.960,2.418 12.000,2.418 C15.040,2.418 17.358,3.436 18.890,5.443 C19.851,6.703 20.484,8.341 20.783,10.333 L21.602,10.333 L21.602,10.333 Z"/>
</svg>
